src/standard/media/paper-lined.svg

<svg xmlns="http://www.w3.org/2000/svg" viewBox="0 0 36 36">
  <path d="M28 4.38H12a.7.7 0 0 0-.44.18l-4 4a.59.59 0 0 0-.15.28V31a.62.62 0 0 0 .62.62H28a.62.62 0 0 0 .62-.62V5a.62.62 0 0 0-.62-.62ZM11.38 6.51v1.87H9.51Zm16 23.87H8.62V9.62H12a.62.62 0 0 0 .62-.62V5.62h14.76Z"/>
  <path d="M12 13.38a.62.62 0 0 0 0 1.24h6a.62.62 0 0 0 0-1.24ZM11.38 18a.62.62 0 0 0 .62.62h12a.62.62 0 0 0 0-1.24H12a.62.62 0 0 0-.62.62ZM24 21.38H12a.62.62 0 0 0 0 1.24h12a.62.62 0 0 0 0-1.24Zm0 4H12a.62.62 0 0 0 0 1.24h12a.62.62 0 0 0 0-1.24Z"/>
</svg>

<svg id="ae8fc77a-7cfc-4baf-9efd-2d3cb10c37a9" data-name="Icon" xmlns="http://www.w3.org/2000/svg" viewBox="0 0 36 36">
  <g>
    <path d="M28,4.38H12a.7.7,0,0,0-.44.18l-4,4a.59.59,0,0,0-.15.28c0,.05,0,.11,0,.16V31a.62.62,0,0,0,.62.62H28a.62.62,0,0,0,.62-.62V5A.62.62,0,0,0,28,4.38ZM11.38,6.51V8.38H9.51Zm16,23.87H8.62V9.62H12A.62.62,0,0,0,12.62,9V5.62H27.38Z"/>
    <path d="M12,13.38a.62.62,0,0,0,0,1.24h6a.62.62,0,0,0,0-1.24Z"/>
    <path d="M11.38,18a.62.62,0,0,0,.62.62H24a.62.62,0,0,0,0-1.24H12A.62.62,0,0,0,11.38,18Z"/>
    <path d="M24,21.38H12a.62.62,0,0,0,0,1.24H24A.62.62,0,0,0,24,21.38Z"/>
    <path d="M24,25.38H12a.62.62,0,0,0,0,1.24H24A.62.62,0,0,0,24,25.38Z"/>
  </g>
</svg>
